src/actions/24/media-mount.svg

<svg xmlns="http://www.w3.org/2000/svg" viewBox="0 0 24 24">
  <defs id="defs3051">
    <style type="text/css" id="current-color-scheme">
      .ColorScheme-Text {
        color:#2e3440;
      }
      </style>
  </defs>
 <path style="fill:currentColor;fill-opacity:1;stroke:none" 
     d="M 5 6 L 12 14 L 19 6 L 5 6 z M 5 15.900391 L 5 18 L 19 18 L 19 15.900391 L 5 15.900391 z "
     class="ColorScheme-Text"
     />
</svg>

<svg viewBox="0 0 24 24" xmlns="http://www.w3.org/2000/svg">
 <defs>
  <style type="text/css">.ColorScheme-Text {
        color:#2e3440;
      }</style>
 </defs>
 <path class="ColorScheme-Text" d="m5 6 7 8 7-8h-14zm0 9.9004v2.0996h14v-2.0996h-14z" fill="currentColor"/>
</svg>
